X:17610
T:Ton double gavotte
%T:TD2
C:Padrig Sicard
D:Portland
Q:C3=156
P:J4
M:12/8
K:Dm
P:J
%%MIDI gchord fzzczzfzcfzz
%%MIDI chordprog 41
%%MIDI bassprog 42
%%MIDI program 21
|: "Dm"AGA "Gm"B3/2A3/2 G3/2F3/2 "Bb"D3/2E3/2 |\
FEF "C"G2 E "Am"C3 "Dm"D3 :|
|: "Dm"AGA "Gm"B3/2A3/2 G3/2F3/2 "Bb"D3/2E3/2 |\
FEF "C"G3/2A3/2 "Bb"d3/2c3/2 "Am"A3/2G3/2 |\
"F"FGA "Gm"B3/2A3/2 G3/2F3/2 "Bb"D3/2E3/2 |\
FEF "C"G2 E  "Am"C3 "Dm"D3 :|
%%text Transition : silence sur derni\`ere note


